X:1
T:Help Somebody Today
T:Help Somebody Today
T:Charles Hutchinson Gabriel
T:Carrie Elizabeth Ellis Breck, 1904
T:Public Domain Courtesy of the Cyber Hymnal™
C:Charles Hutchinson Gabriel
Z:Public Domain
Z:Courtesy of the Cyber Hymnal™
%%score ( 1 2 ) 3
L:1/8
Q:1/4=100
M:6/8
K:F
V:1 treble 
V:2 treble 
V:3 bass 
V:1
 [CA][B,G][A,F] [A,C][A,F][A,G] | [B,F][B,E][B,^D] [B,E]3 | [CB]2 [CB] [B,D]<[B,E][B,D] | [A,C]6 | %4
w: 1.~Look all a- round you, find|some- one in need,|Help some- bo- dy to-|day!|
w: 2.~Ma- ny are wai- ting a|kind, lov- ing word,|Help some- bo- dy to-|day!|
w: 3.~Ma- ny have bur- dens too|hea- vy to bear,|Help some- bo- dy to-|day!|
w: 4.~Some are dis- cour- aged and|wear- y in heart,|Help some- bo- dy to-|day!|
 [CA][B,G][A,F] [A,C][A,F][A,G] | [B,F][B,E][B,^D] [B,E]3 | [CB]2 [CB] [B,D]<[B,E][B,C] | [A,F]6 || %8
w: Though it be lit- tle— a|neigh- bor- ly deed—|Help some- bo- dy to-|day!|
w: Thou hast a mes- sage, O|let it be heard,|Help some- bo- dy to-|day!|
w: Grief is the por- tion of|some ev- ery- where,|Help some- bo- dy to-|day!|
w: Some- one the jour- ney to|hea- ven should start,|Help some- bo- dy to-|day!|
"^Refrain" [Fc]2 [FA] [CG][CF][EG] | c3- [Ac]2 F | [Fd][Fd][Fd] [Fd]2 [DF] | c3- [Ac]2 [FA] | %12
w: ||||
w: ||||
w: Help some- bo- dy to-|day, Some- bo-|* dy a- long life’s|way; Let sor-|
w: ||||
 [GB][GB][GB] [GB][FA][EG] | [FA][FA][FB] [Fc]!fermata![Fc]!fermata![Fd] | %14
w: ||
w: ||
w: * row be end- ed, The|friend- less be- friend- ed, O|
w: ||
 [Fc]2 [FA] [EG]!fermata![FA][CG] | [CF]6 |] %16
w: ||
w: ||
w: help some- bo- dy to-|day!|
w: ||
V:2
 x6 | x6 | x6 | x6 | x6 | x6 | x6 | x6 || x6 | F2 G x3 | x6 | CFG x3 | x6 | x6 | x6 | x6 |] %16
V:3
 [F,,F,][F,,F,][F,,F,] [F,,F,][F,,F,][F,,F,] | [C,G,][C,G,][C,^F,] [C,G,]3 | %2
 [C,G,]2 [C,G,] [C,E,]<[C,G,][C,E,] | [F,,F,]6 | [F,,F,][F,,F,][F,,F,] [F,,F,][F,,F,][F,,F,] | %5
 [C,G,][C,G,][C,^F,] [C,G,]3 | [C,G,]2 [C,G,] [C,E,]<[C,G,][C,E,] | [F,,F,]6 || %8
 [F,A,]2 [F,C] [F,B,][F,A,][F,B,] | ([F,A,]2 [F,B,] [F,C]2) [F,A,] | %10
 [B,,B,][B,,B,][B,,B,] [B,,B,]2 [B,,B,] | ([F,A,]2 [F,B,] [F,C]2) [F,C] | %12
 [C,C][C,C][C,C] [C,C][C,C][C,C] | [F,C][F,C][F,G,] [F,A,]!fermata![F,A,]!fermata![B,,B,] | %14
 [C,A,]2 [C,C] [C,B,]!fermata![C,C][C,B,] | [F,,A,]6 |] %16

